images/icons/math.svg

<svg xmlns="http://www.w3.org/2000/svg" xmlns:xlink="http://www.w3.org/1999/xlink" width="48px" height="48px" viewBox="0 0 48 48" version="1.1">
<defs>
<linearGradient id="linear0" gradientUnits="userSpaceOnUse" x1="1" y1="0" x2="47" y2="0" gradientTransform="matrix(0,-1,1,0,0.00221467,48.000001)">
<stop offset="0" style="stop-color:rgb(87.843137%,29.803922%,54.509804%);stop-opacity:1;"/>
<stop offset="1" style="stop-color:rgb(89.019608%,36.862745%,59.215686%);stop-opacity:1;"/>
</linearGradient>
</defs>
<g id="surface1">
<path style=" stroke:none;fill-rule:nonzero;fill:rgb(0%,0%,0%);fill-opacity:0.0196078;" d="M 1 43 L 1 43.25 C 1 45.464844 2.785156 47.25 5 47.25 L 43 47.25 C 45.214844 47.25 47 45.464844 47 43.25 L 47 43 C 47 45.214844 45.214844 47 43 47 L 5 47 C 2.785156 47 1 45.214844 1 43 Z M 1 43.5 L 1 44 C 1 46.214844 2.785156 48 5 48 L 43 48 C 45.214844 48 47 46.214844 47 44 L 47 43.5 C 47 45.714844 45.214844 47.5 43 47.5 L 5 47.5 C 2.785156 47.5 1 45.714844 1 43.5 Z M 1 43.5 "/>
<path style=" stroke:none;fill-rule:nonzero;fill:rgb(0%,0%,0%);fill-opacity:0.0509804;" d="M 1 43.25 L 1 43.5 C 1 45.714844 2.785156 47.5 5 47.5 L 43 47.5 C 45.214844 47.5 47 45.714844 47 43.5 L 47 43.25 C 47 45.464844 45.214844 47.25 43 47.25 L 5 47.25 C 2.785156 47.25 1 45.464844 1 43.25 Z M 1 43.25 "/>
<path style=" stroke:none;fill-rule:nonzero;fill:rgb(0%,0%,0%);fill-opacity:0.101961;" d="M 1 43 L 1 43.25 C 1 45.464844 2.785156 47.25 5 47.25 L 43 47.25 C 45.214844 47.25 47 45.464844 47 43.25 L 47 43 C 47 45.214844 45.214844 47 43 47 L 5 47 C 2.785156 47 1 45.214844 1 43 Z M 1 43 "/>
<path style=" stroke:none;fill-rule:nonzero;fill:url(#linear0);" d="M 1 43 L 1 5 C 1 2.789062 2.789062 1 5 1 L 43 1 C 45.210938 1 47 2.789062 47 5 L 47 43 C 47 45.210938 45.210938 47 43 47 L 5 47 C 2.789062 47 1 45.210938 1 43 Z M 1 43 "/>
<path style=" stroke:none;fill-rule:nonzero;fill:rgb(0%,0%,0%);fill-opacity:0.101961;" d="M 13.886719 11 L 34.113281 11 C 34.605469 11 35 11.394531 35 11.882812 L 35 36.113281 C 35 36.601562 34.605469 37 34.113281 37 L 13.886719 37 C 13.398438 37 13 36.601562 13 36.113281 L 13 11.882812 C 13 11.394531 13.398438 11 13.886719 11 M 13.886719 11 "/>
<path style=" stroke:none;fill-rule:nonzero;fill:rgb(0%,0%,0%);fill-opacity:0.101961;" d="M 15.441406 31 L 18.554688 31 C 18.800781 31 19 31.199219 19 31.441406 L 19 34.558594 C 19 34.800781 18.800781 35 18.554688 35 L 15.441406 35 C 15.195312 35 15 34.800781 15 34.558594 L 15 31.441406 C 15 31.199219 15.195312 31 15.441406 31 M 15.441406 31 "/>
<path style=" stroke:none;fill-rule:nonzero;fill:rgb(0%,0%,0%);fill-opacity:0.101961;" d="M 15.441406 25.019531 L 18.554688 25.019531 C 18.800781 25.019531 19 25.21875 19 25.460938 L 19 28.578125 C 19 28.820312 18.800781 29.019531 18.554688 29.019531 L 15.441406 29.019531 C 15.195312 29.019531 15 28.820312 15 28.578125 L 15 25.460938 C 15 25.21875 15.195312 25.019531 15.441406 25.019531 M 15.441406 25.019531 "/>
<path style=" stroke:none;fill-rule:nonzero;fill:rgb(0%,0%,0%);fill-opacity:0.101961;" d="M 15.441406 19 L 18.554688 19 C 18.800781 19 19 19.199219 19 19.441406 L 19 22.558594 C 19 22.800781 18.800781 23 18.554688 23 L 15.441406 23 C 15.195312 23 15 22.800781 15 22.558594 L 15 19.441406 C 15 19.199219 15.195312 19 15.441406 19 M 15.441406 19 "/>
<path style=" stroke:none;fill-rule:nonzero;fill:rgb(0%,0%,0%);fill-opacity:0.101961;" d="M 15.441406 13 L 32.550781 13 C 32.796875 13 32.996094 13.199219 32.996094 13.441406 L 32.996094 16.558594 C 32.996094 16.800781 32.796875 17 32.550781 17 L 15.441406 17 C 15.195312 17 15 16.800781 15 16.558594 L 15 13.441406 C 15 13.199219 15.195312 13 15.441406 13 M 15.441406 13 "/>
<path style=" stroke:none;fill-rule:nonzero;fill:rgb(0%,0%,0%);fill-opacity:0.101961;" d="M 22.441406 31 L 25.558594 31 C 25.800781 31 26 31.199219 26 31.441406 L 26 34.558594 C 26 34.800781 25.800781 35 25.558594 35 L 22.441406 35 C 22.199219 35 22 34.800781 22 34.558594 L 22 31.441406 C 22 31.199219 22.199219 31 22.441406 31 M 22.441406 31 "/>
<path style=" stroke:none;fill-rule:nonzero;fill:rgb(0%,0%,0%);fill-opacity:0.101961;" d="M 22.441406 25.019531 L 25.558594 25.019531 C 25.800781 25.019531 26 25.21875 26 25.460938 L 26 28.578125 C 26 28.820312 25.800781 29.019531 25.558594 29.019531 L 22.441406 29.019531 C 22.199219 29.019531 22 28.820312 22 28.578125 L 22 25.460938 C 22 25.21875 22.199219 25.019531 22.441406 25.019531 M 22.441406 25.019531 "/>
<path style=" stroke:none;fill-rule:nonzero;fill:rgb(0%,0%,0%);fill-opacity:0.101961;" d="M 22.441406 19 L 25.558594 19 C 25.800781 19 26 19.199219 26 19.441406 L 26 22.558594 C 26 22.800781 25.800781 23 25.558594 23 L 22.441406 23 C 22.199219 23 22 22.800781 22 22.558594 L 22 19.441406 C 22 19.199219 22.199219 19 22.441406 19 M 22.441406 19 "/>
<path style=" stroke:none;fill-rule:nonzero;fill:rgb(0%,0%,0%);fill-opacity:0.101961;" d="M 29.441406 19 L 32.554688 19 C 32.800781 19 33 19.199219 33 19.441406 L 33 22.558594 C 33 22.800781 32.800781 23 32.554688 23 L 29.441406 23 C 29.195312 23 29 22.800781 29 22.558594 L 29 19.441406 C 29 19.199219 29.195312 19 29.441406 19 M 29.441406 19 "/>
<path style=" stroke:none;fill-rule:nonzero;fill:rgb(0%,0%,0%);fill-opacity:0.101961;" d="M 29.441406 25.019531 L 32.554688 25.019531 C 32.800781 25.019531 33 25.21875 33 25.460938 L 33 34.574219 C 33 34.820312 32.800781 35.019531 32.554688 35.019531 L 29.441406 35.019531 C 29.195312 35.019531 29 34.820312 29 34.574219 L 29 25.460938 C 29 25.21875 29.195312 25.019531 29.441406 25.019531 M 29.441406 25.019531 "/>
<path style=" stroke:none;fill-rule:nonzero;fill:rgb(91.764706%,91.764706%,91.764706%);fill-opacity:1;" d="M 13.886719 10 L 34.113281 10 C 34.605469 10 35 10.394531 35 10.882812 L 35 35.113281 C 35 35.601562 34.605469 36 34.113281 36 L 13.886719 36 C 13.398438 36 13 35.601562 13 35.113281 L 13 10.882812 C 13 10.394531 13.398438 10 13.886719 10 M 13.886719 10 "/>
<path style=" stroke:none;fill-rule:nonzero;fill:rgb(58.431373%,60.392157%,60.784314%);fill-opacity:1;" d="M 15.441406 30 L 18.554688 30 C 18.800781 30 19 30.199219 19 30.441406 L 19 33.558594 C 19 33.800781 18.800781 34 18.554688 34 L 15.441406 34 C 15.195312 34 15 33.800781 15 33.558594 L 15 30.441406 C 15 30.199219 15.195312 30 15.441406 30 M 15.441406 30 "/>
<path style=" stroke:none;fill-rule:nonzero;fill:rgb(58.431373%,60.392157%,60.784314%);fill-opacity:1;" d="M 15.441406 24.019531 L 18.554688 24.019531 C 18.800781 24.019531 19 24.21875 19 24.460938 L 19 27.578125 C 19 27.820312 18.800781 28.019531 18.554688 28.019531 L 15.441406 28.019531 C 15.195312 28.019531 15 27.820312 15 27.578125 L 15 24.460938 C 15 24.21875 15.195312 24.019531 15.441406 24.019531 M 15.441406 24.019531 "/>
<path style=" stroke:none;fill-rule:nonzero;fill:rgb(58.431373%,60.392157%,60.784314%);fill-opacity:1;" d="M 15.441406 18 L 18.554688 18 C 18.800781 18 19 18.199219 19 18.441406 L 19 21.558594 C 19 21.800781 18.800781 22 18.554688 22 L 15.441406 22 C 15.195312 22 15 21.800781 15 21.558594 L 15 18.441406 C 15 18.199219 15.195312 18 15.441406 18 M 15.441406 18 "/>
<path style=" stroke:none;fill-rule:nonzero;fill:rgb(46.27451%,63.921569%,81.176471%);fill-opacity:1;" d="M 15.441406 12 L 32.550781 12 C 32.796875 12 32.996094 12.199219 32.996094 12.441406 L 32.996094 15.558594 C 32.996094 15.800781 32.796875 16 32.550781 16 L 15.441406 16 C 15.195312 16 15 15.800781 15 15.558594 L 15 12.441406 C 15 12.199219 15.195312 12 15.441406 12 M 15.441406 12 "/>
<path style=" stroke:none;fill-rule:nonzero;fill:rgb(58.431373%,60.392157%,60.784314%);fill-opacity:1;" d="M 22.441406 30 L 25.558594 30 C 25.800781 30 26 30.199219 26 30.441406 L 26 33.558594 C 26 33.800781 25.800781 34 25.558594 34 L 22.441406 34 C 22.199219 34 22 33.800781 22 33.558594 L 22 30.441406 C 22 30.199219 22.199219 30 22.441406 30 M 22.441406 30 "/>
<path style=" stroke:none;fill-rule:nonzero;fill:rgb(58.431373%,60.392157%,60.784314%);fill-opacity:1;" d="M 22.441406 24.019531 L 25.558594 24.019531 C 25.800781 24.019531 26 24.21875 26 24.460938 L 26 27.578125 C 26 27.820312 25.800781 28.019531 25.558594 28.019531 L 22.441406 28.019531 C 22.199219 28.019531 22 27.820312 22 27.578125 L 22 24.460938 C 22 24.21875 22.199219 24.019531 22.441406 24.019531 M 22.441406 24.019531 "/>
<path style=" stroke:none;fill-rule:nonzero;fill:rgb(58.431373%,60.392157%,60.784314%);fill-opacity:1;" d="M 22.441406 18 L 25.558594 18 C 25.800781 18 26 18.199219 26 18.441406 L 26 21.558594 C 26 21.800781 25.800781 22 25.558594 22 L 22.441406 22 C 22.199219 22 22 21.800781 22 21.558594 L 22 18.441406 C 22 18.199219 22.199219 18 22.441406 18 M 22.441406 18 "/>
<path style=" stroke:none;fill-rule:nonzero;fill:rgb(58.431373%,60.392157%,60.784314%);fill-opacity:1;" d="M 29.441406 18 L 32.554688 18 C 32.800781 18 33 18.199219 33 18.441406 L 33 21.558594 C 33 21.800781 32.800781 22 32.554688 22 L 29.441406 22 C 29.195312 22 29 21.800781 29 21.558594 L 29 18.441406 C 29 18.199219 29.195312 18 29.441406 18 M 29.441406 18 "/>
<path style=" stroke:none;fill-rule:nonzero;fill:rgb(92.54902%,49.803922%,12.54902%);fill-opacity:1;" d="M 29.441406 24.019531 L 32.554688 24.019531 C 32.800781 24.019531 33 24.21875 33 24.460938 L 33 33.574219 C 33 33.820312 32.800781 34.019531 32.554688 34.019531 L 29.441406 34.019531 C 29.195312 34.019531 29 33.820312 29 33.574219 L 29 24.460938 C 29 24.21875 29.195312 24.019531 29.441406 24.019531 M 29.441406 24.019531 "/>
<path style=" stroke:none;fill-rule:nonzero;fill:rgb(0%,0%,0%);fill-opacity:0.101961;" d="M 1 38.996094 L 1 42.996094 C 1 45.214844 2.785156 46.996094 5 46.996094 L 43 46.996094 C 45.214844 46.996094 47 45.214844 47 42.996094 L 47 38.996094 C 47 41.214844 45.214844 42.996094 43 42.996094 L 5 42.996094 C 2.785156 42.996094 1 41.214844 1 38.996094 Z M 1 38.996094 "/>
</g>
</svg>

<?xml version="1.0" encoding="UTF-8" standalone="no"?>
<svg
   xmlns:dc="http://purl.org/dc/elements/1.1/"
   xmlns:cc="http://creativecommons.org/ns#"
   xmlns:rdf="http://www.w3.org/1999/02/22-rdf-syntax-ns#"
   xmlns:svg="http://www.w3.org/2000/svg"
   xmlns="http://www.w3.org/2000/svg"
   xmlns:xlink="http://www.w3.org/1999/xlink"
   xmlns:sodipodi="http://sodipodi.sourceforge.net/DTD/sodipodi-0.dtd"
   xmlns:inkscape="http://www.inkscape.org/namespaces/inkscape"
   viewBox="0 0 48 48"
   id="svg3123"
   version="1.1"
   inkscape:version="0.48.5 r10040"
   width="100%"
   height="100%"
   sodipodi:docname="math.svg">
  <metadata
     id="metadata3218">
    <rdf:RDF>
      <cc:Work
         rdf:about="">
        <dc:format>image/svg+xml</dc:format>
        <dc:type
           rdf:resource="http://purl.org/dc/dcmitype/StillImage" />
      </cc:Work>
    </rdf:RDF>
  </metadata>
  <sodipodi:namedview
     pagecolor="#ffffff"
     bordercolor="#666666"
     borderopacity="1"
     objecttolerance="10"
     gridtolerance="10"
     guidetolerance="10"
     inkscape:pageopacity="0"
     inkscape:pageshadow="2"
     inkscape:window-width="640"
     inkscape:window-height="480"
     id="namedview3216"
     showgrid="false"
     inkscape:zoom="4.9166667"
     inkscape:cx="24"
     inkscape:cy="24"
     inkscape:window-x="0"
     inkscape:window-y="0"
     inkscape:window-maximized="0"
     inkscape:current-layer="svg3123" />
  <defs
     id="defs3125">
    <linearGradient
       id="linearGradient3764"
       x1="1"
       x2="47"
       gradientUnits="userSpaceOnUse"
       gradientTransform="translate(-48.000001,0.00221467)">
      <stop
         stop-color="#e04c8b"
         stop-opacity="1"
         id="stop3128" />
      <stop
         offset="1"
         stop-color="#e35e97"
         stop-opacity="1"
         id="stop3130" />
    </linearGradient>
    <clipPath
       id="clipPath-144220408">
      <g
         transform="translate(0,-1004.3622)"
         id="g3133">
        <rect
           rx="4"
           y="1005.36"
           x="1"
           height="46"
           width="46"
           fill="#1890d0"
           id="rect3135" />
      </g>
    </clipPath>
    <clipPath
       id="clipPath-176015818">
      <g
         transform="translate(0,-1004.3622)"
         id="g3138">
        <rect
           rx="4"
           y="1005.36"
           x="1"
           height="46"
           width="46"
           fill="#1890d0"
           id="rect3140" />
      </g>
    </clipPath>
    <linearGradient
       inkscape:collect="always"
       xlink:href="#linearGradient3764"
       id="linearGradient3504"
       gradientUnits="userSpaceOnUse"
       gradientTransform="translate(-48.000001,0.00221467)"
       x1="1"
       x2="47" />
  </defs>
  <path
     style="opacity:0.02000002"
     inkscape:connector-curvature="0"
     id="path3144"
     d="m 1,43 0,0.25 c 0,2.216 1.784,4 4,4 l 38,0 c 2.216,0 4,-1.784 4,-4 L 47,43 c 0,2.216 -1.784,4 -4,4 L 5,47 C 2.784,47 1,45.216 1,43 z m 0,0.5 0,0.5 c 0,2.216 1.784,4 4,4 l 38,0 c 2.216,0 4,-1.784 4,-4 l 0,-0.5 c 0,2.216 -1.784,4 -4,4 l -38,0 c -2.216,0 -4,-1.784 -4,-4 z" />
  <path
     style="opacity:0.05"
     inkscape:connector-curvature="0"
     id="path3146"
     d="m 1,43.25 0,0.25 c 0,2.216 1.784,4 4,4 l 38,0 c 2.216,0 4,-1.784 4,-4 l 0,-0.25 c 0,2.216 -1.784,4 -4,4 l -38,0 c -2.216,0 -4,-1.784 -4,-4 z" />
  <path
     style="opacity:0.1"
     inkscape:connector-curvature="0"
     id="path3148"
     d="m 1,43 0,0.25 c 0,2.216 1.784,4 4,4 l 38,0 c 2.216,0 4,-1.784 4,-4 L 47,43 c 0,2.216 -1.784,4 -4,4 L 5,47 C 2.784,47 1,45.216 1,43 z" />
  <rect
     style="fill:url(#linearGradient3504);fill-opacity:1"
     id="rect3152"
     transform="matrix(0,-1,1,0,0,0)"
     rx="4"
     y="1"
     x="-47"
     height="46"
     width="46" />
  <path
     d="m 13.887,11 20.227,0 c 0.492,0 0.887,0.395 0.887,0.883 l 0,24.23 C 35.001,36.601 34.606,37 34.114,37 L 13.887,37 C 13.399,37 13,36.602 13,36.113 l 0,-24.23 C 13,11.395 13.398,11 13.887,11 m 0,0"
     id="path3162"
     inkscape:connector-curvature="0"
     style="opacity:0.1;fill:#000000;fill-opacity:1;fill-rule:nonzero;stroke:none" />
  <path
     d="m 15.441,31 3.113,0 c 0.246,0 0.445,0.199 0.445,0.441 l 0,3.117 c 0,0.242 -0.199,0.441 -0.445,0.441 l -3.113,0 C 15.195,34.999 15,34.8 15,34.558 l 0,-3.117 C 15,31.199 15.195,31 15.441,31 m 0,0"
     id="path3164"
     inkscape:connector-curvature="0"
     style="opacity:0.1;fill:#000000;fill-opacity:1;fill-rule:nonzero;stroke:none" />
  <path
     d="m 15.441,25.02 3.113,0 c 0.246,0 0.445,0.199 0.445,0.441 l 0,3.117 c 0,0.242 -0.199,0.441 -0.445,0.441 l -3.113,0 C 15.195,29.019 15,28.82 15,28.578 l 0,-3.117 c 0,-0.242 0.195,-0.441 0.441,-0.441 m 0,0"
     id="path3166"
     inkscape:connector-curvature="0"
     style="opacity:0.1;fill:#000000;fill-opacity:1;fill-rule:nonzero;stroke:none" />
  <path
     d="m 15.441,19 3.113,0 c 0.246,0 0.445,0.199 0.445,0.441 l 0,3.117 c 0,0.242 -0.199,0.441 -0.445,0.441 l -3.113,0 C 15.195,22.999 15,22.8 15,22.558 l 0,-3.117 C 15,19.199 15.195,19 15.441,19 m 0,0"
     id="path3168"
     inkscape:connector-curvature="0"
     style="opacity:0.1;fill:#000000;fill-opacity:1;fill-rule:nonzero;stroke:none" />
  <path
     d="m 15.441,13 17.11,0 c 0.246,0 0.445,0.199 0.445,0.441 l 0,3.117 c 0,0.242 -0.199,0.441 -0.445,0.441 l -17.11,0 C 15.195,16.999 15,16.8 15,16.558 l 0,-3.117 C 15,13.199 15.195,13 15.441,13 m 0,0"
     id="path3170"
     inkscape:connector-curvature="0"
     style="opacity:0.1;fill:#000000;fill-opacity:1;fill-rule:nonzero;stroke:none" />
  <path
     d="m 22.441,31 3.117,0 c 0.242,0 0.441,0.199 0.441,0.441 l 0,3.117 c 0,0.242 -0.199,0.441 -0.441,0.441 l -3.117,0 C 22.199,34.999 22,34.8 22,34.558 l 0,-3.117 C 22,31.199 22.199,31 22.441,31 m 0,0"
     id="path3172"
     inkscape:connector-curvature="0"
     style="opacity:0.1;fill:#000000;fill-opacity:1;fill-rule:nonzero;stroke:none" />
  <path
     d="m 22.441,25.02 3.117,0 c 0.242,0 0.441,0.199 0.441,0.441 l 0,3.117 c 0,0.242 -0.199,0.441 -0.441,0.441 l -3.117,0 C 22.199,29.019 22,28.82 22,28.578 l 0,-3.117 c 0,-0.242 0.199,-0.441 0.441,-0.441 m 0,0"
     id="path3174"
     inkscape:connector-curvature="0"
     style="opacity:0.1;fill:#000000;fill-opacity:1;fill-rule:nonzero;stroke:none" />
  <path
     d="m 22.441,19 3.117,0 c 0.242,0 0.441,0.199 0.441,0.441 l 0,3.117 c 0,0.242 -0.199,0.441 -0.441,0.441 l -3.117,0 C 22.199,22.999 22,22.8 22,22.558 l 0,-3.117 C 22,19.199 22.199,19 22.441,19 m 0,0"
     id="path3176"
     inkscape:connector-curvature="0"
     style="opacity:0.1;fill:#000000;fill-opacity:1;fill-rule:nonzero;stroke:none" />
  <path
     d="m 29.441,19 3.113,0 c 0.246,0 0.445,0.199 0.445,0.441 l 0,3.117 c 0,0.242 -0.199,0.441 -0.445,0.441 l -3.113,0 C 29.195,22.999 29,22.8 29,22.558 l 0,-3.117 C 29,19.199 29.195,19 29.441,19 m 0,0"
     id="path3178"
     inkscape:connector-curvature="0"
     style="opacity:0.1;fill:#000000;fill-opacity:1;fill-rule:nonzero;stroke:none" />
  <path
     d="m 29.441,25.02 3.113,0 c 0.246,0 0.445,0.199 0.445,0.441 l 0,9.113 c 0,0.246 -0.199,0.445 -0.445,0.445 l -3.113,0 C 29.195,35.019 29,34.82 29,34.574 l 0,-9.113 c 0,-0.242 0.195,-0.441 0.441,-0.441 m 0,0"
     id="path3180"
     inkscape:connector-curvature="0"
     style="opacity:0.1;fill:#000000;fill-opacity:1;fill-rule:nonzero;stroke:none" />
  <path
     d="m 13.887,10 20.227,0 c 0.492,0 0.887,0.395 0.887,0.883 l 0,24.23 C 35.001,35.601 34.606,36 34.114,36 L 13.887,36 C 13.399,36 13,35.602 13,35.113 l 0,-24.23 C 13,10.395 13.398,10 13.887,10 m 0,0"
     id="path3190"
     inkscape:connector-curvature="0"
     style="fill:#eaeaea;fill-opacity:1;fill-rule:nonzero;stroke:none" />
  <path
     d="m 15.441,30 3.113,0 c 0.246,0 0.445,0.199 0.445,0.441 l 0,3.117 c 0,0.242 -0.199,0.441 -0.445,0.441 l -3.113,0 C 15.195,33.999 15,33.8 15,33.558 l 0,-3.117 C 15,30.199 15.195,30 15.441,30 m 0,0"
     id="path3192"
     inkscape:connector-curvature="0"
     style="fill:#959a9b;fill-opacity:1;fill-rule:nonzero;stroke:none" />
  <path
     d="m 15.441,24.02 3.113,0 c 0.246,0 0.445,0.199 0.445,0.441 l 0,3.117 c 0,0.242 -0.199,0.441 -0.445,0.441 l -3.113,0 C 15.195,28.019 15,27.82 15,27.578 l 0,-3.117 c 0,-0.242 0.195,-0.441 0.441,-0.441 m 0,0"
     id="path3194"
     inkscape:connector-curvature="0"
     style="fill:#959a9b;fill-opacity:1;fill-rule:nonzero;stroke:none" />
  <path
     d="m 15.441,18 3.113,0 c 0.246,0 0.445,0.199 0.445,0.441 l 0,3.117 c 0,0.242 -0.199,0.441 -0.445,0.441 l -3.113,0 C 15.195,21.999 15,21.8 15,21.558 l 0,-3.117 C 15,18.199 15.195,18 15.441,18 m 0,0"
     id="path3196"
     inkscape:connector-curvature="0"
     style="fill:#959a9b;fill-opacity:1;fill-rule:nonzero;stroke:none" />
  <path
     d="m 15.441,12 17.11,0 c 0.246,0 0.445,0.199 0.445,0.441 l 0,3.117 c 0,0.242 -0.199,0.441 -0.445,0.441 l -17.11,0 C 15.195,15.999 15,15.8 15,15.558 l 0,-3.117 C 15,12.199 15.195,12 15.441,12 m 0,0"
     id="path3198"
     inkscape:connector-curvature="0"
     style="fill:#76a3cf;fill-opacity:1;fill-rule:nonzero;stroke:none" />
  <path
     d="m 22.441,30 3.117,0 c 0.242,0 0.441,0.199 0.441,0.441 l 0,3.117 c 0,0.242 -0.199,0.441 -0.441,0.441 l -3.117,0 C 22.199,33.999 22,33.8 22,33.558 l 0,-3.117 C 22,30.199 22.199,30 22.441,30 m 0,0"
     id="path3200"
     inkscape:connector-curvature="0"
     style="fill:#959a9b;fill-opacity:1;fill-rule:nonzero;stroke:none" />
  <path
     d="m 22.441,24.02 3.117,0 c 0.242,0 0.441,0.199 0.441,0.441 l 0,3.117 c 0,0.242 -0.199,0.441 -0.441,0.441 l -3.117,0 C 22.199,28.019 22,27.82 22,27.578 l 0,-3.117 c 0,-0.242 0.199,-0.441 0.441,-0.441 m 0,0"
     id="path3202"
     inkscape:connector-curvature="0"
     style="fill:#959a9b;fill-opacity:1;fill-rule:nonzero;stroke:none" />
  <path
     d="m 22.441,18 3.117,0 c 0.242,0 0.441,0.199 0.441,0.441 l 0,3.117 c 0,0.242 -0.199,0.441 -0.441,0.441 l -3.117,0 C 22.199,21.999 22,21.8 22,21.558 l 0,-3.117 C 22,18.199 22.199,18 22.441,18 m 0,0"
     id="path3204"
     inkscape:connector-curvature="0"
     style="fill:#959a9b;fill-opacity:1;fill-rule:nonzero;stroke:none" />
  <path
     d="m 29.441,18 3.113,0 c 0.246,0 0.445,0.199 0.445,0.441 l 0,3.117 c 0,0.242 -0.199,0.441 -0.445,0.441 l -3.113,0 C 29.195,21.999 29,21.8 29,21.558 l 0,-3.117 C 29,18.199 29.195,18 29.441,18 m 0,0"
     id="path3206"
     inkscape:connector-curvature="0"
     style="fill:#959a9b;fill-opacity:1;fill-rule:nonzero;stroke:none" />
  <path
     d="m 29.441,24.02 3.113,0 c 0.246,0 0.445,0.199 0.445,0.441 l 0,9.113 c 0,0.246 -0.199,0.445 -0.445,0.445 l -3.113,0 C 29.195,34.019 29,33.82 29,33.574 l 0,-9.113 c 0,-0.242 0.195,-0.441 0.441,-0.441 m 0,0"
     id="path3208"
     inkscape:connector-curvature="0"
     style="fill:#ec7f20;fill-opacity:1;fill-rule:nonzero;stroke:none" />
  <path
     d="m 1,38.9978 0,4 c 0,2.216 1.784,4 4,4 l 38,0 c 2.216,0 4,-1.784 4,-4 l 0,-4 c 0,2.216 -1.784,4 -4,4 l -38,0 c -2.216,0 -4,-1.784 -4,-4 z"
     id="path3214"
     inkscape:connector-curvature="0"
     style="opacity:0.1" />
</svg>
